X: 35
T:Croeso'r Wenynen
T:Welcome to the Bee
M:3/4
L:1/8
Q:200
C:Trad
S:51 Welsh Airs
R:Minuet
A:Wales
H:From a facsimile c.1840: A Choice Collection of Fifty-One Welsh Airs
H:adapted for The Harp, Piano-Forte, Harpsichord,
H:Violin, or Flute by Edward Jones
H:"Harper to His Late Majesty King George IV, when
H:Prince of Wales".
Z:brian_martin12345@yahoo.com
K:C
(3GAB|c4 ed|c2G2AB|c2B2A2|G4FG|A2AGFG|A2G2F2|E>C {EF}E2D2|C4:||!
(AB)|c2B2A2|c2{Bc}B2A2|e2 dcBA|{B}A2^G2A2|cdefed|cdefed|!
cdecdB|c4G2|ABcBAc|G3FE2|A2AGFG|A2AGAB|c2E2{DE}D2|C4:||
